X:1
T:Title
%%score { ( 1 3 ) | 2 }
L:1/8
M:6/8
K:G
V:1 treble nm="Grand Piano"
V:3 treble 
V:2 bass 
V:1
 z3 z2[Q:1/4=95] D | z3 .G3 | F3 .E3 | z3 .F3 |[M:5/8][K:bass] B,-B,- B,3 |[M:1/8] D | %6
[M:3/4][K:treble] z2 z .G3 | F3 .A3 | AB .A2 ^CE | D4- D[CD] | z2 z .G3 | F3 .E3 | z2 z .F3 | %13
[M:5/8][K:bass] B,-B,- B,3 |[M:1/8] D |[M:3/4][K:treble] z2 z .G3 | E3 .A3 | z2 z .B3 | %18
[M:5/8] G-G- G3 |[M:1/8] z |[M:3/4] z2 z .e3 | d3 .c3 | z2 z .d3 |[M:5/8] B-B- B3 |[M:1/8] B | %25
[M:3/4] z2 z .c3 | A3 .E3 | z2 z .B3 |[M:5/8] G-G- G3 |] %29
V:2
 z6 | G,,[D,G,B,][D,G,B,] B,,[D,G,][D,G,B,] | A,,[D,F,][D,F,] D,[F,A,][F,A,] | %3
 A,,[D,F,A,][D,F,A,] D,[F,A,][F,A,C] |[M:5/8] [G,,D,G,][G,,D,][G,,D,] [G,,D,]2 |[M:1/8] z | %6
[M:3/4] G,,[D,G,B,] [D,G,B,]B,, [D,G,][D,G,B,] | A,,[F,A,] [F,A,]D, [F,A,][F,A,D] | %8
 E,[G,A,^C] [G,A,C]A,, [G,A,][G,A,C] | D,E, D,C, B,,A,, | G,,D, D,B,, [D,G,][D,G,B,] | %11
 A,,[D,F,] [D,F,]D, [F,A,][F,A,] | A,,[D,F,A,] [D,F,A,]D, [F,A,][F,A,C] | %13
[M:5/8] [G,,D,G,][G,,D,][G,,D,] [G,,D,]2 |[M:1/8] z | %15
[M:3/4] G,,[D,G,B,] [D,G,B,]B,, [D,G,][D,G,B,] | C,[E,A,] [E,A,]A,, [E,A,][E,A,C] | %17
 D,[G,A,C] [F,A,C]D, [F,C][F,CD] |[M:5/8] G,D,B,, G,,2 |[M:1/8][K:treble] d | %20
[M:3/4][K:bass] G,,[G,B,D] [G,B,D]B,, [G,B,][G,B,D] | A,,[D,F,] [D,F,]D, [F,A,][F,A,C] | %22
 A,,[D,F,A,] [D,F,A,]D, [F,A,][F,A,C] |[M:5/8] G,,[D,G,][D,G,] [D,G,]2 |[M:1/8] z | %25
[M:3/4] B,,[E,^G,D] [E,G,D]E,, [E,G,][E,G,D] | A,,[E,A,] [E,A,]C, [E,A,][E,A,C] | %27
 D,[A,C] [A,C]D, [F,C][F,CD] |[M:5/8] G,D,B,, G,,2 |] %29
V:3
 x6 | D^CD z B,D | z CC z CC | CB,C z CE |[M:5/8][K:bass] z G,G, G,2 |[M:1/8] x | %6
[M:3/4][K:treble] D^C .D2 B,D | z D .D2 DA | z2 z .G3 | x6 | [B,D][G,B,^C] .[G,B,D]2 B,D | %11
 z C .C2 CC | CB, .C2 CE |[M:5/8][K:bass] z G,G, G,2 |[M:1/8] x |[M:3/4][K:treble] D^C .D2 B,D | %16
 z C .C2 CG | F=F .^F2 DA |[M:5/8] z [B,D][B,D] [B,D]2 |[M:1/8] x |[M:3/4] d^c .d2 DB | %21
 z C .C2 Cc | cB .c2 Cc |[M:5/8] z B,B, B,2 |[M:1/8] x |[M:3/4] B_B .=B2 DB | z C .C2 CG | %27
 F=F .^F2 DA |[M:5/8] z [B,D][B,D] [B,D]2 |] %29

